X:1
T:Standin In The Need of Prayer
T:How we take this feeble body
T:Copyright 1881 by The Riverside Press
T:Rodeheaver's Plantation Melodies
T:Rodeheaver's Plantation Melodies
Z:Rodeheaver's Plantation Melodies
%%score [ 1 2 3 4 ]
L:1/8
M:4/4
K:F
V:1 treble nm="Soprano" snm="S."
V:2 treble nm="Alto" snm="A."
V:3 bass nm="Tenor" snm="T."
V:4 bass nm="Bass" snm="B."
V:1
 FA | cccc A c2 c/c/ | d/d/d d>d c2 FA | c2 A>G F2 DD | C4 FF/F/ EF | G4 GG/G/ FG | A4 c2 c>d | %7
w: Now we|take this fee- ble bo- dy. And we|car- ry it to the grave. And we|all leave it there, hal- le-|lu- jah. * * * *|||
w: Now we|take tis dear old fa- ther. And we|car- ry im to the grave. And we|all leave him there, hal- le-|lu- jah. * * * *|||
w: Now we|lift our mourn- ful voi- ces. As we|ga- ther a- round the grave. And we|weep as we sing, hal- le-|lu- jah. * * * *|||
 c2 AG F2 DD | C4 FF/F/ EF | G4 GG/G/ FG | A4 c2 c>d | c2 AG F2 DD | C4 !fermata!F2 |] %13
w: ||||||
w: ||||||
w: ||||||
V:2
 z2 | z8 | z8 | z8 | z4 z C/C/ CC | E4 EE/E/ DE | F4 A2 F>F | F2 FE F2 DD | C4 CC/C/ CC | %9
w: ||||And a Hal- le-|lu- jah, and a hal- le-|lu- jah. And we|all leave it there, hal- le-|lu- jah. And a hal- le-|
w: ||||||* * And we|all leave him there, hal- le-|lu- jah. * * * *|
w: ||||||* * And we|weep as we sing, hal- le-|lu- jah. * * * *|
 E4 EE/E/ DE | F4 A2 F>F | F2 FE F2 DD | C4 !fermata!C2 |] %13
w: lu- jah, and a hal- le-|lu- jah. And we|all leave it there, hal- le-|lu- jah.|
w: |* * And we|all leve him there, hal- le-|lu- jah.|
w: |* * And we|weep as we sing, hal- le-|lu- jah.|
V:3
 z2 | z8 | z8 | z8 | z4 z A,/A,/ B,A, | C4 CC/C/ CC | C4 C2 A,>B, | A,2 CB, A,2 B,B, | %8
 A,4 A,A,/A,/ B,A, | C4 CC/C/ CC | C4 C2 A,>B, | A,2 CB, A,2 B,B, | A,4 !fermata!A,2 |] %13
V:4
 z2 | z8 | z8 | z8 | z4 z F,/F,/ G,F, | C,4 C,C,/C,/ C,C, | F,4 F,2 F,>F, | F,2 F,F, F,2 F,F, | %8
 F,4 F,F,/F,/ G,F, | C,4 C,C,/C,/ C,C, | F,4 F,2 F,>F, | F,2 F,F, F,2 F,F, | F,4 !fermata!F,2 |] %13

